symbols/web/featured_play_list/materialsymbolsrounded/featured_play_list_wght300grad200fill1_48px.svg

<svg xmlns="http://www.w3.org/2000/svg" height="48" width="48"><path d="M13.45 25.6h14.9q.55 0 .975-.425.425-.425.425-1.075 0-.6-.425-1.025-.425-.425-.975-.425h-14.9q-.6 0-1.025.45-.425.45-.425 1 0 .65.425 1.075.425.425 1.025.425Zm0-6.65h14.9q.55 0 .975-.425.425-.425.425-1.075 0-.55-.425-.975-.425-.425-.975-.425h-14.9q-.6 0-1.025.425Q12 16.9 12 17.5q0 .6.425 1.025.425.425 1.025.425ZM7.9 39.6q-1.45 0-2.5-1.05t-1.05-2.5v-24.1q0-1.45 1.05-2.5T7.9 8.4h32.2q1.45 0 2.5 1.05t1.05 2.5v24.1q0 1.45-1.05 2.5t-2.5 1.05Z"/></svg>

<svg xmlns="http://www.w3.org/2000/svg" height="48" width="48"><path d="M13.45 25.6H28.35Q28.9 25.6 29.325 25.175Q29.75 24.75 29.75 24.1Q29.75 23.5 29.325 23.075Q28.9 22.65 28.35 22.65H13.45Q12.85 22.65 12.425 23.1Q12 23.55 12 24.1Q12 24.75 12.425 25.175Q12.85 25.6 13.45 25.6ZM13.45 18.95H28.35Q28.9 18.95 29.325 18.525Q29.75 18.1 29.75 17.45Q29.75 16.9 29.325 16.475Q28.9 16.05 28.35 16.05H13.45Q12.85 16.05 12.425 16.475Q12 16.9 12 17.5Q12 18.1 12.425 18.525Q12.85 18.95 13.45 18.95ZM7.9 39.6Q6.45 39.6 5.4 38.55Q4.35 37.5 4.35 36.05V11.95Q4.35 10.5 5.4 9.45Q6.45 8.4 7.9 8.4H40.1Q41.55 8.4 42.6 9.45Q43.65 10.5 43.65 11.95V36.05Q43.65 37.5 42.6 38.55Q41.55 39.6 40.1 39.6Z"/></svg>
